packages/core/src/svgs/lym.svg

<svg width="24" height="24" viewBox="0 0 24 24" fill="none" xmlns="http://www.w3.org/2000/svg">
<g clip-path="url(#clip0_31_13450)">
<path d="M0 0H24V24H0V0Z" fill="#F8434F"/>
<path d="M9.26998 17.3332L3.91027 7.94496C3.92055 7.94496 3.51941 6.86068 4.77427 6.86068H8.23113C8.4389 6.84615 8.64667 6.88904 8.8317 6.98466C9.01674 7.08028 9.17192 7.22494 9.28027 7.40282C9.66084 8.02853 15 17.4271 15 17.4271L10.4117 18.0001C9.92827 18.0211 9.49627 17.7605 9.26998 17.3332Z" fill="#FDC5CA"/>
<path d="M10.3046 15.9666L13.6273 10.3909C13.6273 10.3909 13.8917 9.85693 14.7279 9.85693H18.2516C18.2516 9.85693 19.7122 9.88779 19.1619 10.8324C18.6116 11.7872 15.2674 17.4144 15.2674 17.4144C15.2674 17.4144 15.0454 17.9998 14.1459 17.9998H9.84944C9.84944 17.9998 9.05572 17.9689 9.64801 17.0141C10.2407 16.0592 10.3046 15.9666 10.3046 15.9666Z" fill="white"/>
</g>
<defs>
<clipPath id="clip0_31_13450">
<rect width="24" height="24" fill="white"/>
</clipPath>
</defs>
</svg>

<svg xmlns="http://www.w3.org/2000/svg" width="24" height="24" fill="none" viewBox="0 0 24 24"><g clip-path="url(#a)"><path fill="#F8434F" d="M0 0h24v24H0z"/><path fill="#FDC5CA" d="M9.27 17.333 3.91 7.945c.01 0-.39-1.084.864-1.084h3.457a1.14 1.14 0 0 1 1.05.542C9.66 8.029 15 17.427 15 17.427L10.412 18a1.23 1.23 0 0 1-1.142-.667"/><path fill="#fff" d="m10.305 15.967 3.322-5.576s.265-.534 1.1-.534h3.525s1.46.03.91.975c-.55.955-3.895 6.582-3.895 6.582s-.222.586-1.121.586H9.849s-.793-.031-.201-.986.657-1.047.657-1.047"/></g><defs><clipPath id="a"><path fill="#fff" d="M0 0h24v24H0z"/></clipPath></defs></svg>
